packages/bezier-icons/icons/pin.svg

<svg width="24" height="24" viewBox="0 0 24 24" fill="none" xmlns="http://www.w3.org/2000/svg">
<path fill-rule="evenodd" clip-rule="evenodd" d="M20.5209 7.48282C21.5825 8.5444 21.1395 10.3536 19.7076 10.8046L17.9671 11.3529C17.6602 11.4495 17.3812 11.6188 17.1538 11.8463L15.5858 13.4142C15.2107 13.7893 15 14.298 15 14.8284V18.7098C15 19.2175 14.8069 19.7062 14.4599 20.0768L14.3475 20.1968C13.9612 20.6093 13.3101 20.62 12.9105 20.2204L9.06619 16.3761L3.85322 21.5882C3.46273 21.9786 2.82968 21.9786 2.43922 21.5881C2.04874 21.1977 2.04874 20.5646 2.43922 20.1741L7.65219 14.9611L3.84439 11.1533C3.4698 10.7787 3.45233 10.177 3.80455 9.78131L3.90342 9.67024C4.28293 9.24388 4.82652 8.99999 5.39732 8.99999H9.17159C9.70202 8.99999 10.2107 8.78928 10.5858 8.41421L12.1583 6.84168C12.3829 6.61712 12.5507 6.34231 12.648 6.04L13.2104 4.29206C13.6685 2.86802 15.4707 2.4326 16.5285 3.49039L20.5209 7.48282ZM19.1067 8.89702L15.1143 4.9046L14.5519 6.65253C14.3574 7.25716 14.0217 7.80677 13.5725 8.25588L12 9.82842C11.2499 10.5786 10.2324 11 9.17158 11H6.51949C8.67979 13.1604 10.8397 15.3211 13 17.4815V14.8284C13 13.7675 13.4214 12.7501 14.1716 12L15.7395 10.432C16.1945 9.97707 16.7525 9.63857 17.3662 9.44526L19.1067 8.89702Z" fill="#313234"/>
</svg>

<svg xmlns="http://www.w3.org/2000/svg" width="24" height="24" fill="none" viewBox="0 0 24 24"><path fill="#313234" fill-rule="evenodd" d="M20.52 7.483c1.063 1.061.62 2.87-.812 3.322l-1.74.548a2 2 0 0 0-.814.493l-1.568 1.568A2 2 0 0 0 15 14.828v3.882a2 2 0 0 1-.54 1.367l-.113.12a1 1 0 0 1-1.436.023l-3.845-3.844-5.213 5.212a1 1 0 0 1-1.414-1.414l5.213-5.213-3.808-3.808a1 1 0 0 1-.04-1.372l.1-.11A2 2 0 0 1 5.396 9h3.775a2 2 0 0 0 1.414-.586l1.572-1.572a2 2 0 0 0 .49-.802l.562-1.748c.458-1.424 2.26-1.86 3.319-.802zm-1.413 1.414-3.993-3.992-.562 1.748a4 4 0 0 1-.98 1.603L12 9.828A4 4 0 0 1 9.172 11H6.519L13 17.482v-2.654A4 4 0 0 1 14.172 12l1.567-1.568a4 4 0 0 1 1.627-.987z" clip-rule="evenodd"/></svg>
